X:0
T:Coleshill
G:psalm tune
M:2/2
L:1/2
Q:1/2=80
K:AMin
% dorian/minor hexatonic
A|AG|cG|AA|E||c|ed|c   G|c||
c|ed|cG|AA|E||c|GA|d/c/B|A|]



14. Outwith Scotland
=== ================

These modes are not the exclusive property of the Scots; neither do they
define any kind of "Celtic" musical idiom.  I've concentrated on Scottish
music because that's what I understand best, but many of these modes occur
everywhere in Europe, and some much further afield.

The dorian/minor hexatonic is one of the commonest scales in Europe.  Here's
an example from the Middle Ages:

